dist/svgs/geomicons-open/icons/calendar.svg

<svg xmlns="http://www.w3.org/2000/svg" viewBox="0 0 32 32"><path d="M2 4h4V2a2 2 0 014 0v2h12V2a2 2 0 014 0v2h4v6H2m0 2h28v18H2"/></svg>

<svg id="calendar" xmlns="http://www.w3.org/2000/svg" viewBox="0 0 32 32" width="32" height="32" fill="currentcolor">
  <path d="M2 4 L6 4 L6 2 A2 2 0 0 1 10 2 L10 4 L22 4 L22 2 A2 2 0 0 1 26 2 L26 4 L30 4 L30 10 L2 10 M2 12 L30 12 L30 30 L2 30"></path>
</svg>
